docs/img/all-services/7.svg

<svg width="80" height="80" viewBox="0 0 80 80" fill="none" xmlns="http://www.w3.org/2000/svg">
<path d="M22.6567 6.89193C16.0224 8.57899 10.7983 13.8249 9.11464 20.4905C8.51873 22.8493 10.3229 25.1358 12.7452 25.1358C12.7706 25.1358 12.7954 25.1358 12.8209 25.1358C14.536 25.1358 16.0128 23.9576 16.4453 22.29C17.4641 18.3675 20.5392 15.2798 24.4438 14.259C26.0985 13.8268 27.2667 12.3463 27.2667 10.6276V10.5298C27.2667 8.10289 24.9986 6.29553 22.6567 6.89193Z" stroke="#0098D0" stroke-width="2" stroke-miterlimit="10" stroke-linecap="round" stroke-linejoin="round"/>
<path d="M30.8544 34.2683H7.80379C5.86057 34.2683 4.28516 32.6853 4.28516 30.7325V5.08806C4.28516 3.13472 5.86057 1.55212 7.80379 1.55212H30.8544C32.7976 1.55212 34.3736 3.13532 34.3736 5.08806V30.7325C34.3736 32.6853 32.7976 34.2683 30.8544 34.2683Z" stroke="#0098D0" stroke-width="2" stroke-miterlimit="10" stroke-linecap="round" stroke-linejoin="round"/>
<path d="M21.7336 37.6674V42.1066H15.4883V37.6674" stroke="#0098D0" stroke-width="2" stroke-miterlimit="10" stroke-linecap="round" stroke-linejoin="round"/>
<path d="M18.6133 42.1066V48.3454" stroke="#0098D0" stroke-width="2" stroke-miterlimit="10" stroke-linecap="round" stroke-linejoin="round"/>
<path d="M22.34 24.9581C22.6745 24.9581 22.9456 24.6857 22.9456 24.3496C22.9456 24.0135 22.6745 23.741 22.34 23.741C22.0056 23.741 21.7344 24.0135 21.7344 24.3496C21.7344 24.6857 22.0056 24.9581 22.34 24.9581Z" stroke="#0098D0" stroke-width="2" stroke-miterlimit="10" stroke-linecap="round" stroke-linejoin="round"/>
<path d="M27.2651 20.0983C27.5993 20.0983 27.8701 19.8261 27.8701 19.4903C27.8701 19.1546 27.5993 18.8824 27.2651 18.8824C26.931 18.8824 26.6602 19.1546 26.6602 19.4903C26.6602 19.8261 26.931 20.0983 27.2651 20.0983Z" stroke="#0098D0" stroke-width="2" stroke-miterlimit="10" stroke-linecap="round" stroke-linejoin="round"/>
<path d="M28.1714 26.8003C28.5055 26.8003 28.7764 26.5281 28.7764 26.1924C28.7764 25.8566 28.5055 25.5844 28.1714 25.5844C27.8373 25.5844 27.5664 25.8566 27.5664 26.1924C27.5664 26.5281 27.8373 26.8003 28.1714 26.8003Z" stroke="#0098D0" stroke-width="2" stroke-miterlimit="10" stroke-linecap="round" stroke-linejoin="round"/>
<path d="M33.7503 58.9676H16.5202C14.7724 58.9676 13.3555 57.5438 13.3555 55.788C13.3555 54.0317 14.7724 52.6077 16.5202 52.6077H38.9344" stroke="#0098D0" stroke-width="2" stroke-miterlimit="10" stroke-linecap="round" stroke-linejoin="round"/>
<path d="M33.7529 65.3279H28.8483C27.1005 65.3279 25.6836 63.9041 25.6836 62.1483" stroke="#0098D0" stroke-width="2" stroke-miterlimit="10" stroke-linecap="round" stroke-linejoin="round"/>
<path d="M33.751 71.6882H30.942C29.1942 71.6882 27.7773 70.2644 27.7773 68.5087" stroke="#0098D0" stroke-width="2" stroke-miterlimit="10" stroke-linecap="round" stroke-linejoin="round"/>
<path d="M64.937 72.8866C59.1079 72.7601 57.9971 73.2349 57.9971 73.2349C57.9971 73.2349 56.5445 73.5206 54.6981 74.1182C48.987 75.9658 43.0382 76.964 37.0446 77.1209L34.3717 77.1428C32.6239 77.1428 31.207 75.719 31.207 73.9627" stroke="#0098D0" stroke-width="2" stroke-miterlimit="10" stroke-linecap="round" stroke-linejoin="round"/>
<path d="M30.7993 49.7515C29.9874 49.0487 29.4961 48.0134 29.4961 46.8948C29.4961 45.0162 30.5597 44.0211 31.6057 43.7044C31.7007 43.6758 31.7981 43.6502 31.8973 43.6265C32.9578 43.376 34.0686 43.514 35.0753 43.9341C36.8697 44.6819 40.5275 45.8412 45.3722 45.1986C48.1758 44.8271 51.0204 45.491 53.3496 47.1039C54.8269 48.1271 56.5034 49.3527 58.0455 50.6318C58.0455 50.6318 61.1473 53.7884 64.9375 53.7884" stroke="#0098D0" stroke-width="2" stroke-miterlimit="10" stroke-linecap="round" stroke-linejoin="round"/>
<path d="M31.207 73.9627V71.6882" stroke="#0098D0" stroke-width="2" stroke-miterlimit="10" stroke-linecap="round" stroke-linejoin="round"/>
<path d="M27.7773 68.5081V65.1382" stroke="#0098D0" stroke-width="2" stroke-miterlimit="10" stroke-linecap="round" stroke-linejoin="round"/>
<path d="M25.6836 62.1483V58.9676" stroke="#0098D0" stroke-width="2" stroke-miterlimit="10" stroke-linecap="round" stroke-linejoin="round"/>
<path d="M75.7153 50.1985H66.73C65.7403 50.1985 64.9375 51.0046 64.9375 51.9998V74.6861C64.9375 75.6813 65.7403 76.4874 66.73 76.4874H75.7153" stroke="#0098D0" stroke-width="2" stroke-miterlimit="10" stroke-linecap="round" stroke-linejoin="round"/>
</svg>

<svg width="80" height="80" fill="none" xmlns="http://www.w3.org/2000/svg"><path d="M22.657 6.892C16.022 8.579 10.798 13.825 9.115 20.49c-.596 2.358 1.208 4.645 3.63 4.645h.076c1.715 0 3.192-1.178 3.624-2.846 1.02-3.922 4.094-7.01 7.999-8.031a3.758 3.758 0 002.823-3.631v-.098c0-2.427-2.268-4.234-4.61-3.638z" stroke="#0098D0" stroke-width="2" stroke-miterlimit="10" stroke-linecap="round" stroke-linejoin="round"/><path d="M30.854 34.268H7.804a3.527 3.527 0 01-3.519-3.535V5.088a3.527 3.527 0 013.519-3.536h23.05a3.528 3.528 0 013.52 3.536v25.645a3.528 3.528 0 01-3.52 3.535zm-9.12 3.399v4.44h-6.246v-4.44m3.125 4.44v6.238" stroke="#0098D0" stroke-width="2" stroke-miterlimit="10" stroke-linecap="round" stroke-linejoin="round"/><path d="M22.34 24.958a.607.607 0 00.606-.608.607.607 0 00-.606-.609.607.607 0 00-.606.609c0 .336.272.608.606.608zm4.925-4.86a.606.606 0 00.605-.608.606.606 0 00-.605-.608.606.606 0 00-.605.608c0 .336.271.608.605.608zm.906 6.702a.606.606 0 00.605-.608.607.607 0 00-.605-.608.607.607 0 00-.605.608c0 .336.271.608.605.608zm5.579 32.168H16.52a3.172 3.172 0 01-3.165-3.18 3.173 3.173 0 013.165-3.18h22.414m-5.181 12.72h-4.905a3.172 3.172 0 01-3.164-3.18m8.067 9.54h-2.809a3.172 3.172 0 01-3.165-3.18m37.16 4.379c-5.83-.127-6.94.348-6.94.348s-1.453.286-3.299.883a62.678 62.678 0 01-17.653 3.003l-2.673.022a3.172 3.172 0 01-3.165-3.18M30.8 49.752a3.777 3.777 0 01-1.304-2.857c0-1.879 1.064-2.874 2.11-3.19a5.22 5.22 0 01.291-.078c1.06-.251 2.172-.113 3.178.307 1.795.748 5.453 1.907 10.297 1.265a11.373 11.373 0 017.978 1.905c1.477 1.023 3.153 2.249 4.695 3.528 0 0 3.102 3.156 6.892 3.156m-33.73 20.175v-2.275m-3.43-3.18v-3.37m-2.093-2.99v-3.18m50.031-8.769H66.73c-.99 0-1.793.806-1.793 1.8v22.687c0 .995.803 1.801 1.793 1.801h8.985" stroke="#0098D0" stroke-width="2" stroke-miterlimit="10" stroke-linecap="round" stroke-linejoin="round"/></svg>
